polaris-icons/icons/newicons/TransferMajor.svg

<svg width="20" height="20" viewBox="0 0 20 20" fill="none" xmlns="http://www.w3.org/2000/svg">
<path fill-rule="evenodd" clip-rule="evenodd" d="M3.75 3C4.16421 3 4.5 3.33579 4.5 3.75V9.00001H11.5546L10.195 7.50451C9.91642 7.19802 9.939 6.72368 10.2455 6.44505C10.552 6.16642 11.0263 6.18901 11.305 6.4955L13.805 9.2455C14.065 9.53157 14.065 9.96844 13.805 10.2545L11.305 13.0045C11.0263 13.311 10.552 13.3336 10.2455 13.055C9.939 12.7763 9.91641 12.302 10.195 11.9955L11.5546 10.5L4.5 10.5V16.25C4.5 16.6642 4.16421 17 3.75 17C3.33579 17 3 16.6642 3 16.25V3.75C3 3.33579 3.33579 3 3.75 3ZM16.25 3C16.6642 3 17 3.33579 17 3.75V16.25C17 16.6642 16.6642 17 16.25 17C15.8358 17 15.5 16.6642 15.5 16.25V3.75C15.5 3.33579 15.8358 3 16.25 3Z" fill="black"/>
</svg>

<svg viewBox="0 0 20 20" fill="none" xmlns="http://www.w3.org/2000/svg"><path fill-rule="evenodd" clip-rule="evenodd" d="M3.75 3a.75.75 0 0 1 .75.75v5.25h7.055l-1.36-1.495a.75.75 0 0 1 1.11-1.01l2.5 2.75a.75.75 0 0 1 0 1.01l-2.5 2.75a.75.75 0 0 1-1.11-1.01l1.36-1.495h-7.055v5.75a.75.75 0 0 1-1.5 0v-12.5a.75.75 0 0 1 .75-.75Zm12.5 0a.75.75 0 0 1 .75.75v12.5a.75.75 0 0 1-1.5 0v-12.5a.75.75 0 0 1 .75-.75Z" fill="#5C5F62"/></svg>
